X:49
T: WAS BLASEN DIE TROMPETEN HUSAREN HERAUS
N: B0060
O: Europa, Mitteleuropa, Deutschland
R: Kriegs -, Sieges -, Soldaten - Lied
M: 4/4
L: 1/16
K: G
D2 | G3GG2G2d4B2G2 | G2E2E2E2E4z2
c2 | c2B2A2G2F2A2d2F2 | A2G2G2G2G4z2
B2 | d2c2A2A2A4G2A2 | B4G2G2G6
d2 | d2c2A2A2c2B2A2G2 | d4d2d2d2c2B2
A2 | G4G2G2d4B2G2 | G2E2E2E2E6
c2 | c2B2A2G2F2A2d2F2 | A2G2G2G2G4z2

@@@ Tune index: 1852
